X:1
T:Eltham, 77.77 D
T:Eltham, 77.77 D
T:Lowell Mason, 1840
T:Public Domain Courtesy of the Cyber Hymnal™
C:Lowell Mason, 1840
Z:Public Domain
Z:Courtesy of the Cyber Hymnal™
%%score ( 1 2 ) ( 3 4 )
L:1/8
Q:1/4=105
M:3/4
K:G
V:1 treble 
V:2 treble 
V:3 bass 
V:4 bass 
V:1
|: D[DG] | [DB]3 [EG] [Fd][Fd] | [GB]4 D[DG] | [DB][EG] [FA]2 (BA) x | [DG]4!fine! :| DD | %6
 (d>d d)[DB] [Dc][DB] | (B2 A2) | DD | (B>B B)[DG] [DA][DG] | (G2 F2)!D.C.! |] %11
V:2
|: D x | x6 | x6 | x4 F2 x | x4 :| x2 | D3 x3 | D4 | x2 | D3 x3 | D4 |] %11
V:3
|: [G,B,][G,B,] | [G,D]3 [E,G,] [D,A,][D,D] | [G,D]4 [G,B,][G,B,] | G,[E,B,] D3 z x | [G,,B,]4 :| %5
 D,D, | (B,>B, B,)[D,G,] [D,A,][D,G,] | (G,2 F,2) | D,D, | (D>D D)[D,B,] [D,C][D,B,] | (B,2 A,2) |] %11
V:4
|: x2 | x6 | x6 | x2 D,2 (D,2 C) | x4 :| x2 | D,3 x3 | D,4 | x2 | D,3 x3 | D,4 |] %11

